!!!!SEGMENT: pl-gd--ee-2628--006-016_stabile-annibale--il-terzo-libro-de-madrigali-a-cinque-voci-fu-l-lauro-sempre-verde.krn
!!!cenid: 15xx:1083
!!!COM: Stabile, Annibale
!!!COM-rismID: pe30009662
!!!CDT: ~1535-1595/04
!!!CNT: Italian
!!!GTL: Il terzo libro de madrigali a cinque voci
!!!OTL: Fu’l lauro sempre verde
!!!OMV: 016
!!!PDT: 1585
!!!AGN:
!!!SMS-siglum: PL-GD
!!!SMS-shelfmark: Ee 2628
!!!SMS-shelfwork: 006-016 G
!!!SMS-variant:
!!!SMS-altvar:
!!!NIFC-rismSourceID: 990060530
!!!NIFC-islandoraID: pl-gd:66139
!!!URL-pdf-islandora: https://repozytorium.nifc.pl/islandora/object/pl-gd%3A66139/datastream/PDF/view
!!!URL-scan: https://polish.musicsources.pl/pl/lokalizacje/galeria/klocki-introligatorskie/673 @EN{Scan on Polish Music Herritage in Open Access Website} @PL{Skany w portalu Dziedzictwo Muzyki Polskiej w otwartym dostępie}
!!!ONB-nifc: UWAGA: Canto: s. 90-101, Tenore: s. 246-257, Basso: s. 402-413, Quinto: s. 724-735. Dla głosu Alto proszę skorzystać z https://pbc.gda.pl/dlibra/publication/87582/edition/79411/content, str. 25-48. Uwaga: utwory podzielone wg spisu treści dostępnych na końcu ksiąg – proszę sprawdzać sąsiednie tytuły. Głos Quinto proszę umieszczać wg ambitusu (może się różnić w zależności od utworu).
!!!AIN: 1 alto 1 bass 1 soprn 1 tenor 1 vox
!!!key: C
**kern	**text	**kern	**text	**kern	**text	**kern	**text	**kern	**text
*part5	*part5	*part4	*part4	*part3	*part3	*part2	*part2	*part1	*part1
*staff5	*staff5	*staff4	*staff4	*staff3	*staff3	*staff2	*staff2	*staff1	*staff1
*I"BASSO	*	*I"TENORE	*	*I"ALTO	*	*I"QVINTO	*	*I"CANTO	*
*I'B	*	*I'T	*	*I'A	*	*I'V	*	*I'S	*
*ICvox	*	*ICvox	*	*ICvox	*	*ICvox	*	*ICvox	*
*Ibass	*	*Itenor	*	*Ialto	*	*Ivox	*	*Isoprn	*
*clefF3	*	*clefC3	*	*clefC2	*	*clefG2	*	*clefG2	*
*k[]	*	*k[]	*	*k[]	*	*k[]	*	*k[]	*
*C:	*	*C:	*	*C:	*	*C:	*	*C:	*
*M4/4	*	*M4/4	*	*M4/4	*	*M4/4	*	*M4/4	*
*met(C)	*	*met(C)	*	*met(C)	*	*met(C)	*	*met(C)	*
=1-	=1-	=1-	=1-	=1-	=1-	=1-	=1-	=1-	=1-
0r	.	0r	.	2r	.	00r	.	2cc\	FV'l
.	.	.	.	2cc\	FV'l	.	.	2.ee\	lau-
=2-	=2-	=2-	=2-	=2-	=2-	=2-	=2-	=2-	=2-
.	.	.	.	2.a\	lau-	.	.	.	.
.	.	.	.	.	.	.	.	4ff\	-ro
.	.	.	.	.	.	.	.	2ee\	ſem-
.	.	.	.	4g\	-ro	.	.	.	.
=3-	=3-	=3-	=3-	=3-	=3-	=3-	=3-	=3-	=3-
1r	.	2r	.	4a\	ſem-	.	.	2cc\	-pre
.	.	.	.	4cc\	-pre	.	.	.	.
.	.	2.g\	FV'l	2b\	ver-	.	.	2dd\	ver-
=4-	=4-	=4-	=4-	=4-	=4-	=4-	=4-	=4-	=4-
2c\	FV'l	.	.	1cc	-de	.	.	2ee\	-de
.	.	2e\	lau-	.	.	.	.	.	.
2.A\	lau-	.	.	.	.	.	.	2r	.
.	.	4f\	-ro	.	.	.	.	.	.
=5-	=5-	=5-	=5-	=5-	=5-	=5-	=5-	=5-	=5-
.	.	2e\	ſem-	1r	.	1r	.	1r	.
4G\	-ro	.	.	.	.	.	.	.	.
4A\	ſem-	2c/	-pre	.	.	.	.	.	.
4c\	-pre	.	.	.	.	.	.	.	.
=6-	=6-	=6-	=6-	=6-	=6-	=6-	=6-	=6-	=6-
2B\	ver-	2d\	ver-	2r	.	2gg\	FV'l	2r	.
*	*	*	*	*	*ij	*	*	*	*ij
2c\	-de	2e\	-de	2g\	FV'l	2.ee\	lau-	2cc\	FV'l
=7-	=7-	=7-	=7-	=7-	=7-	=7-	=7-	=7-	=7-
4r	.	0r	.	2.cc\	lau-	.	.	2.a/	lau-
*	*ij	*	*	*	*	*	*	*	*
4F\	FV'l	.	.	.	.	4ff\	-ro	.	.
4A\	lau-	.	.	.	.	2ee\	ſem-	.	.
4c\	-ro	.	.	4cc\	-ro	.	.	4g/	-ro
*custos:A	*	*	*	*	*	*	*	*	*
!LO:LB:g=original	!	!	!	!	!	!	!	!	!
=8-	=8-	=8-	=8-	=8-	=8-	=8-	=8-	=8-	=8-
4A\	ſem-	.	.	4cc\	ſem-	2cc\	-pre	4a/	ſem-
4A\	-pre	.	.	4c/	-per	.	.	4cc\	-pre
*	*	*	*	*custos:g	*	*	*	*custos:b	*
!	!	!	!	!LO:LB:g=original	!	!	!	!LO:LB:g=original	!
2G\	ver-	.	.	2g\	ver-	2dd\	ver-	2b/	ver-
=9-	=9-	=9-	=9-	=9-	=9-	=9-	=9-	=9-	=9-
1C	-de	2r	.	1g	-de	2ee\	-de	1cc	-de
.	.	4c/	Ma	.	.	4ee\	Ma	.	.
.	.	4d\	per	.	.	4ff\	per	.	.
=10-	=10-	=10-	=10-	=10-	=10-	=10-	=10-	=10-	=10-
1r	.	2e\	te	1r	.	4gg\	te	1r	.
.	.	.	.	.	.	2gg\	ſola	.	.
*	*Xij	*custos:g	*	*	*Xij	*	*	*	*Xij
!	!	!LO:LB:g=original	!	!	!	!	!	!	!
.	.	4g\	ſola	.	.	.	.	.	.
.	.	4a\	in	.	.	4ee\	in	.	.
*	*	*	*	*	*	*custos:ff	*	*	*
!	!	!	!	!	!	!LO:LB:g=original	!	!	!
=11-	=11-	=11-	=11-	=11-	=11-	=11-	=11-	=11-	=11-
4F/	Ma	2f\	gra-	4a\	Ma	2ff\	gra-	2r	.
4G\	per-	.	.	4b\	per	.	.	.	.
2A\	te	2c/	-ta	4cc\	te	1ee\	-ta	4cc\	Ma
.	.	.	.	4a\	ſola	.	.	4dd\	per
=12-	=12-	=12-	=12-	=12-	=12-	=12-	=12-	=12-	=12-
4c\	ſola	1r	.	4g\	in-	.	.	2ee\	te
4c\	in-	.	.	2a\	-gra-	.	.	.	.
2d\	-gra-	.	.	.	.	4a/	Ma	2r	.
.	.	.	.	8g\	.	4b/	per	.	.
.	.	.	.	8f\	.	.	.	.	.
=13-	=13-	=13-	=13-	=13-	=13-	=13-	=13-	=13-	=13-
*	*	*	*ij	*	*	*	*	*	*
0c	-ta	4c\	Ma	4g\	.	4cc\	te	4ee\	Ma
.	.	4d\	per	4f\	.	8b/	.	4ff\	per
.	.	.	.	.	.	8a/	.	.	.
.	.	4e\	te	4.e\	.	4g/	ſo-	2gg\	te
.	.	2g\	ſola	.	.	2cc\	-la	.	.
.	.	.	.	8d/	.	.	.	.	.
*	*	*	*	*custos:e	*	*	*	*	*
!	!	!	!	!LO:LB:g=original	!	!	!	!	!
=14-	=14-	=14-	=14-	=14-	=14-	=14-	=14-	=14-	=14-
.	.	.	.	4e/	.	.	.	4gg\	ſola
.	.	4f\	in-	4f\	.	4cc\	in-	4aa\	in-
.	.	2e\	-gra-	2g\	.	2cc\	-fra-	2gg\	-gra-
=15-	=15-	=15-	=15-	=15-	=15-	=15-	=15-	=15-	=15-
2r	.	2.f\	-ta	2a\	-ta	1cc	-ta	1ff	-ta
2F/	I	.	.	2a\	I	.	.	.	.
*	*	*	*Xij	*	*	*	*	*	*
.	.	4c/	I	.	.	.	.	.	.
*custos:E	*	*	*	*	*	*	*	*	*
!LO:LB:g=original	!	!	!	!	!	!	!	!	!
=16-	=16-	=16-	=16-	=16-	=16-	=16-	=16-	=16-	=16-
4E/	dol-	4c/	dol-	4.g\	dol-	1r	.	2r	.
4E/	-ci e	4c/	-ci e	.	.	.	.	.	.
.	.	.	.	8a\	-ci	.	.	.	.
*	*	*custos:d	*	*	*	*	*	*	*
!	!	!LO:LB:g=original	!	!	!	!	!	!	!
2D/	ca-	2d\	ca-	4b-X\	e ca-	.	.	2ff\	I
.	.	.	.	4a\	-ri	.	.	.	.
*	*	*	*	*	*	*	*	*custos:ee	*
!	!	!	!	!	!	!	!	!LO:LB:g=original	!
=17-	=17-	=17-	=17-	=17-	=17-	=17-	=17-	=17-	=17-
2C#X/	-ri	2e\	-ri	2a\	priui-	1r	.	4ee\	dol-
.	.	.	.	.	.	.	.	4ee\	-ci
8D/	pri-	4r	.	4f\	-leg-	.	.	2dd\	e ca-
8E/	.	.	.	.	.	.	.	.	.
8F\	.	4f\	I	2a\	-gi	.	.	.	.
8G\	.	.	.	.	.	.	.	.	.
=18-	=18-	=18-	=18-	=18-	=18-	=18-	=18-	=18-	=18-
4A\	ui-	4e\	dol-	.	.	2r	.	2cc#X\	-ri
4A\	-leg-	4e\	-ce	4a\	hor	.	.	.	.
4D/	-gi	2d\	 e ca-	1a\	per-	2ff\	I	4.dd\	priui-
4D/	hor	.	.	.	.	.	.	.	.
.	.	.	.	.	.	.	.	8dd\	-le-
*	*	*	*	*	*	*custos:ee	*	*	*
!	!	!	!	!	!	!LO:LB:g=original	!	!	!
=19-	=19-	=19-	=19-	=19-	=19-	=19-	=19-	=19-	=19-
2A\	per-	2c#X/	-ri	.	.	4ee\	dolci	4ee\	-gi
.	.	.	.	.	.	4ee\	e	4a/	hor
2D/	-de	2d\	pri-	2.a\	-de	2dd\	ca-	2ff\	per-
=20-	=20-	=20-	=20-	=20-	=20-	=20-	=20-	=20-	=20-
0r	.	4A/	-vi-	.	.	2cc#X\	-ri	2ee\	-de
.	.	4.a\	-leg-	4A/	hor	.	.	.	.
.	.	.	.	4.d/	per-	1dd\	pri-	2r	.
.	.	8g\	.	.	.	.	.	.	.
.	.	8f\	.	.	.	.	.	.	.
.	.	8e\	.	8e/	.	.	.	.	.
=21-	=21-	=21-	=21-	=21-	=21-	=21-	=21-	=21-	=21-
.	.	2.d\	gi	4.f\	.	.	.	4r	.
.	.	.	.	.	.	.	.	2a/	priui-
.	.	.	.	8e\	.	.	.	.	.
*	*	*	*	*custos:f	*	*	*	*	*
!	!	!	!	!LO:LB:g=original	!	!	!	!	!
.	.	.	.	8f\	.	2dd\	-vi-	.	.
.	.	.	.	8g\	.	.	.	.	.
.	.	4f\	hor	4.a\	.	.	.	4a/	-le-
=22-	=22-	=22-	=22-	=22-	=22-	=22-	=22-	=22-	=22-
1r	.	2e\	per-	.	.	4ee\	-leg-	4b/	-gi
.	.	.	.	8g\	.	.	.	.	.
.	.	.	.	2g\	.	4ccny\	-gi	4g/	hor
.	.	2d\	-de	.	.	2dd\	hor	2a/	per-
.	.	.	.	4f#X\	.	.	.	.	.
=23-	=23-	=23-	=23-	=23-	=23-	=23-	=23-	=23-	=23-
2r	.	2r	.	0g	-de	1dd	perde	1b	-de
2G\	Qan-	2d\	Quan-	.	.	.	.	.	.
=24-	=24-	=24-	=24-	=24-	=24-	=24-	=24-	=24-	=24-
2c\	-do 	2e\	-do	.	.	1r	.	0r	.
*custos:c	*	*custos:e	*	*	*	*	*	*	*
!LO:LB:g=original	!	!LO:LB:g=original	!	!	!	!	!	!	!
4c\	eri	4e\	eri	.	.	.	.	.	.
2c\	del	2e\	del	.	.	.	.	.	.
=25-	=25-	=25-	=25-	=25-	=25-	=25-	=25-	=25-	=25-
.	.	.	.	1r	.	1r	.	.	.
4B\	tuo	4d\	ver-	.	.	.	.	.	.
4A\	ver-	4f\	-de	.	.	.	.	.	.
4G\	-de	4e\	aman-	.	.	.	.	.	.
=26-	=26-	=26-	=26-	=26-	=26-	=26-	=26-	=26-	=26-
4F/	aman-	4d\	-do	0r	.	2r	.	2r	.
4E/	-do	4cny/	or-	.	.	.	.	.	.
2D/	orna-	2B/	-na-	.	.	4r	.	2dd\	Quan-
.	.	.	.	.	.	4dd\	Quan-	.	.
=27-	=27-	=27-	=27-	=27-	=27-	=27-	=27-	=27-	=27-
0Cny	-ta	1c	-ta	.	.	2ee\	-do	2gg\	-do
*	*	*	*	*	*	*	*	*custos:gg	*
!	!	!	!	!	!	!	!	!LO:LB:g=original	!
.	.	.	.	.	.	4ee\	eri	4gg\	eri
.	.	.	.	.	.	2ee\	del	2gg\	del
=28-	=28-	=28-	=28-	=28-	=28-	=28-	=28-	=28-	=28-
.	.	0r	.	1r	.	.	.	.	.
.	.	.	.	.	.	4dd\	tuo	4ff\	tuo
.	.	.	.	.	.	4cc\	ver-	4ee\	ver-
.	.	.	.	.	.	4b/	-de	4dd\	-de
=29-	=29-	=29-	=29-	=29-	=29-	=29-	=29-	=29-	=29-
1r	.	.	.	2c/	Dolce	4a/	amã(n)-	4ccny\	amã(n)-
.	.	.	.	.	.	4g/	d'or-	4b/	-do
*	*	*	*	*	*	*custos:f#	*	*	*
!	!	!	!	!	!	!LO:LB:g=original	!	!	!
.	.	.	.	4d/	io	2f#X/	-na-	2a/	orna-
.	.	.	.	4d/	ſe-	.	.	.	.
=30-	=30-	=30-	=30-	=30-	=30-	=30-	=30-	=30-	=30-
2c\	Dolce	1r	.	4.e/	-gui-	4g/	-ta	1g	-ta
.	.	.	.	.	.	4cc\	Dolce	.	.
.	.	.	.	8e/	-ua	.	.	.	.
4B\	io	.	.	4d/	l'a-	4dd\	io	.	.
4B\	ſe-	.	.	4d/	-moro-	4dd\	ſe-	.	.
=31-	=31-	=31-	=31-	=31-	=31-	=31-	=31-	=31-	=31-
2c\	-gui-	4r	.	4g\	-ſa	2ee\	-gui-	4r	.
.	.	4c/	Dolce	4g\	in	.	.	4cc\	Dolce
2G\	-ua	4B/	io	2g\	ſe-	2dd\	-ua	4dd\	io
.	.	4B/	ſe-	.	.	.	.	4dd\	ſe-
=32-	=32-	=32-	=32-	=32-	=32-	=32-	=32-	=32-	=32-
1r	.	4.c/	-gui-	1g	-gna	1r	.	4.ee\	-gui-
.	.	8c/	-ua	.	.	.	.	8ee\	-ua
.	.	4c/	l'a-	.	.	.	.	4ee\	l'a-
.	.	4B/	-moro	.	.	.	.	4dd\	-moro-
=33-	=33-	=33-	=33-	=33-	=33-	=33-	=33-	=33-	=33-
2c\	Dolce	4A/	ſa	0r	.	4r	.	4cc\	-ſa
.	.	4A/	in	.	.	4cc\	Dolce	4ee\	in
*	*	*custos:G	*	*	*	*	*	*	*
!	!	!LO:LB:g=original	!	!	!	!	!	!	!
4B\	io	2G/	ſe-	.	.	4dd\	io	2gg\	ſe -
4B\	ſe-	.	.	.	.	4dd\	ſe-	.	.
*custos:c	*	*	*	*	*	*	*	*	*
!LO:LB:g=original	!	!	!	!	!	!	!	!	!
=34-	=34-	=34-	=34-	=34-	=34-	=34-	=34-	=34-	=34-
4.c\	-gui-	2c\	-gna	.	.	4.ee\	-gui-	1gg	-gna
8c\	-ua	.	.	.	.	8ee\	-ua	.	.
4c\	l'a-	2r	.	.	.	4ee\	l'a-	.	.
4B\	-moro-	.	.	.	.	4dd\	-moro-	.	.
*	*	*	*ij	*	*ij	*	*	*	*
=35-	=35-	=35-	=35-	=35-	=35-	=35-	=35-	=35-	=35-
4A\	-ſa	2c\	Dolce	4r	.	4cc\	-ſa	1r	.
4A\	in	.	.	4cc\	Dolce	4ee\	in	.	.
*	*	*	*	*custos:b	*	*	*	*	*
!	!	!	!	!LO:LB:g=original	!	!	!	!	!
2G\	ſe-	4d\	io	4bny\	io	2gg\	ſe-	.	.
.	.	4d\	ſe-	4b\	ſe-	.	.	.	.
*	*	*	*	*	*	*	*	*custos:g	*
!	!	!	!	!	!	!	!	!LO:LB:g=original	!
=36-	=36-	=36-	=36-	=36-	=36-	=36-	=36-	=36-	=36-
4C/	-gna	4.e\	-gui-	4.cc\	-gui-	1gg	-gna	4r	.
2C/	l'a-	.	.	.	.	.	.	2g/	l'a-
.	.	8e\	-ua	8cc\	-ua	.	.	.	.
.	.	4e\	l'a-	4cc\	l'a-	.	.	.	.
4G\	-moro-	4d\	-moro-	4b\	-moro-	.	.	4g/	-moro-
*	*	*	*	*	*	*custos:cc	*	*	*
!	!	!	!	!	!	!LO:LB:g=original	!	!	!
=37-	=37-	=37-	=37-	=37-	=37-	=37-	=37-	=37-	=37-
4A\	-ſa	4c\	-ſa	4a\	-ſa	0r	.	4cc\	-ſa
4A\	in	4e\	in	4cc\	in	.	.	4cc\	in-
2G\	ſe-	2g\	ſe-	2b\	ſe-	.	.	2dd\	-ſe-
=38-	=38-	=38-	=38-	=38-	=38-	=38-	=38-	=38-	=38-
2C/	-gna	2g\	-gna	2cc\	-gna	.	.	2ee\	-gna
*	*	*	*Xij	*	*Xij	*	*	*	*
2F/	Ma	2f\	Ma	2a\	Ma	.	.	2cc\	Ma
=39-	=39-	=39-	=39-	=39-	=39-	=39-	=39-	=39-	=39-
2F/	poi	1f	poi	2a\	poi	1r	.	1cc	poi
4F/	che	.	.	4a\	che	.	.	.	.
2F/	ſec-	.	.	2a\	ſec-	.	.	.	.
=40-	=40-	=40-	=40-	=40-	=40-	=40-	=40-	=40-	=40-
.	.	2c/	Ma	.	.	2cc\	Ma	4r	.
4E/	-ca	.	.	4g\	-ca	.	.	4g/	Ma
*custos:F	*	*	*	*	*	*	*	*	*
!LO:LB:g=original	!	!	!	!	!	!	!	!	!
2F/	pian-	2c/	poi	2fny\	pian-	2cc\	poi	2a/	poi
=41-	=41-	=41-	=41-	=41-	=41-	=41-	=41-	=41-	=41-
2C/	-ta	4c/	che	0g	-ta	4cc\	cge	4ee\	che
.	.	2c/	ſec-	.	.	2cc\	ſec-	2ee\	ſec-
2r	.	.	.	.	.	.	.	.	.
.	.	4B/	-ca	.	.	4dd\	-ca	4dd\	-ca
=42-	=42-	=42-	=42-	=42-	=42-	=42-	=42-	=42-	=42-
1r	.	2c/	pian-	.	.	2ee\	pian-	2cc\	pian-
.	.	2G/	-ta	.	.	2dd\	-ta	2b/	-ta
*	*	*custos:B	*	*	*	*	*	*	*
!	!	!LO:LB:g=original	!	!	!	!	!	!	!
=43-	=43-	=43-	=43-	=43-	=43-	=43-	=43-	=43-	=43-
2r	.	2r	.	2r	.	0r	.	2r	.
2G\	Per	2B/	Per	2g\	Per	.	.	2dd\	Per
=44-	=44-	=44-	=44-	=44-	=44-	=44-	=44-	=44-	=44-
2G\	me	2B/	me	2g\	me	.	.	2dd\	me
4D/	che	4A/	che	4f\	che	.	.	4dd\	che
2F/	mai	2a\	mai	2f\	mai	.	.	2cc\	mai
=45-	=45-	=45-	=45-	=45-	=45-	=45-	=45-	=45-	=45-
.	.	.	.	.	.	1r	.	.	.
4G\	rin-	4g\	rin-	4d/	rin-	.	.	4b/	rin-
*	*	*	*	*custos:c	*	*	*	*custos:cc	*
!	!	!	!	!LO:LB:g=original	!	!	!	!LO:LB:g=original	!
2A\	-uer-	2f#X\	-uer-	2c/	-uer-	.	.	2cc\	-ver-
=46-	=46-	=46-	=46-	=46-	=46-	=46-	=46-	=46-	=46-
4G\	-da	2g\	-da	4d/	-da	2r	.	4b/	-da
2c\	pur	.	.	2e/	pur	.	.	2cc\	pur
.	.	2r	.	.	.	2.g/	pur	.	.
4B\	ti	.	.	4d/	ti	.	.	4dd\	ti
=47-	=47-	=47-	=47-	=47-	=47-	=47-	=47-	=47-	=47-
2c\	ſcer-	2r	.	2c/	ſcer-	.	.	4ee\	ſcer-
.	.	.	.	.	.	4a/	ti	8dd\	.
.	.	.	.	.	.	.	.	8cc\	.
2G\	-no	4r	.	4g\	-no	4b/	ſcer-	2dd\	.
.	.	2g\	pur	4G/	ti	8a/	.	.	.
.	.	.	.	.	.	8g/	.	.	.
=48-	=48-	=48-	=48-	=48-	=48-	=48-	=48-	=48-	=48-
1r	.	.	.	2d/	ſcer-	2a/	.	1dd	-no
.	.	4f#X\	ti	.	.	.	.	.	.
.	.	2g\	ſcer-	2G/	-no	2b/	.	.	.
=49-	=49-	=49-	=49-	=49-	=49-	=49-	=49-	=49-	=49-
4r	.	4c\	-no	0r	.	1g	-no	4r	.
4c\	E	4e\	E	.	.	.	.	4ee\	E
4c\	ch'a 	4c/	ch'a	.	.	.	.	4ee\	ch'a
4B\	l'an-	4d\	l'an-	.	.	.	.	4dd\	l'an-
*custos:A	*	*	*	*	*	*	*	*	*
!LO:LB:g=original	!	!	!	!	!	!	!	!	!
=50-	=50-	=50-	=50-	=50-	=50-	=50-	=50-	=50-	=50-
4A\	-ti-	4e\	-ti-	.	.	1r	.	4cc\	-ti-
4G\	-ca e	4e\	-ca	.	.	.	.	4b/	-ca
2F/	ſan-	8A/	e	.	.	.	.	2a/	e ſan-
.	.	8B/	ſan-	.	.	.	.	.	.
.	.	8c\	.	.	.	.	.	.	.
.	.	8d\	.	.	.	.	.	.	.
*	*	*custos:e	*	*	*	*	*	*	*
!	!	!LO:LB:g=original	!	!	!	!	!	!	!
=51-	=51-	=51-	=51-	=51-	=51-	=51-	=51-	=51-	=51-
4E/	-ta	4e\	.	2r	.	2r	.	4g/	-ta
4.F/	Leg-	8d\	.	.	.	.	.	4.a/	Leg-
.	.	8c\	.	.	.	.	.	.	.
.	.	4d\	.	4r	.	4r	.	.	.
8F/	-ge	.	.	.	.	.	.	8a/	-ge
4E/	d'a-	4e\	ta	4cc\	E	4ee\	E	4g/	d'a-
*	*	*	*	*	*	*custos:ee	*	*custos:g	*
!	!	!	!	!	!	!LO:LB:g=original	!	!LO:LB:g=original	!
=52-	=52-	=52-	=52-	=52-	=52-	=52-	=52-	=52-	=52-
2G\	-mor	2r	.	4cc\	ch'a	4ee\	ch'a	2g/	-mor
.	.	.	.	4b\	l'an-	4dd\	l'an-	.	.
2r	.	4r	.	4a\	-ti-	4cc\	-ti-	2r	.
.	.	4e\	e	4g\	-ca e	4b\	-ca e	.	.
=53-	=53-	=53-	=53-	=53-	=53-	=53-	=53-	=53-	=53-
1r	.	2A/	ſan-	2cc\	ſan-	2a/	ſan-	1r	.
.	.	4e\	-ta	4b\	-ta	4g/	-ta	.	.
.	.	4.fny\	Leg-	4.a\	Leg-	4.cc\	Leg-	.	.
=54-	=54-	=54-	=54-	=54-	=54-	=54-	=54-	=54-	=54-
2r	.	.	.	.	.	.	.	4r	.
.	.	8f\	-ge	8a\	-ge	8cc\	-ge	.	.
.	.	4e\	d'a-	4cc\	d'a-	4ee\	d'a-	2g/	Pro-
*	*	*	*	*custos:b	*	*	*	*	*
!	!	!	!	!LO:LB:g=original	!	!	!	!	!
2G\	Pro-	2g\	-mor	2b\	-mor	2dd\	-mor	.	.
.	.	.	.	.	.	.	.	4.gg\	-fa-
=55-	=55-	=55-	=55-	=55-	=55-	=55-	=55-	=55-	=55-
4.c\	-ſa	2.e\	Pro-	4r	.	2r	.	.	.
.	.	.	.	.	.	.	.	8ff\	.
.	.	.	.	4g\	Pro-	.	.	8ee\	.
8B\	.	.	.	.	.	.	.	8dd\	.
8A\	.	.	.	4.cc\	-fa-	4r	.	4ee\	n'
8G\	.	.	.	.	.	.	.	.	.
2F/	.	2f\	-fon'	.	.	2cc\	Pro-	2a/	hai
.	.	.	.	8b\	.	.	.	.	.
=56-	=56-	=56-	=56-	=56-	=56-	=56-	=56-	=56-	=56-
.	.	.	.	8a\	.	.	.	.	.
.	.	.	.	8g\	.	.	.	.	.
4F/	n'hai	4f\	hai	2f\	.	2ff\	-ſan'	4.a/	fat-
4F/	fat-	8c/	fat-	.	.	.	.	.	.
.	.	8d\	.	.	.	.	.	8b/	.
4C/	-to	8e\	.	4g\	-n'hai	4ee\	hai	8cc\	.
.	.	8c\	.	.	.	.	.	8a/	.
*custos:G	*	*	*	*	*	*	*	*	*
!LO:LB:g=original	!	!	!	!	!	!	!	!	!
=57-	=57-	=57-	=57-	=57-	=57-	=57-	=57-	=57-	=57-
1G	ſcher-	4d\	.	4g\	fat-	4dd\	fat-	4b\	.
.	.	4e\	-to	4g\	-to	4cc\	-to	4cc\	to
*	*	*custos:d	*	*	*	*	*	*	*
!	!	!LO:LB:g=original	!	!	!	!	!	!	!
.	.	2d\	ſcher-	2g\	ſcher-	2b/	ſcher-	2dd\	ſcher-
=58-	=58-	=58-	=58-	=58-	=58-	=58-	=58-	=58-	=58-
1C	-no	2c/	-no	2g\	-no	2cc\	-no	2ee\	-no
.	.	4c/	Sec-	4g\	Sec-	4cc\	Sec-	4ee\	Sec-
.	.	4c/	-co	4g\	-co e	4cc\	-co 	4ee\	-co e
*	*	*	*	*	*	*custos:cc	*	*	*
!	!	!	!	!	!	!LO:LB:g=original	!	!	!
=59-	=59-	=59-	=59-	=59-	=59-	=59-	=59-	=59-	=59-
1r	.	2f\	e vuo-	2a\	vuo-	2cc\	e vuo-	2ff\	vuo-
*	*	*	*	*	*	*	*	*custos:ff	*
!	!	!	!	!	!	!	!	!LO:LB:g=original	!
.	.	4d\	-to	4a\	-to è	4dd\	-to	4ff\	-to
.	.	4e\	è'l	4g#X\	mio	4b/	è'l	4ee\	èl mio
=60-	=60-	=60-	=60-	=60-	=60-	=60-	=60-	=60-	=60-
2r	.	4A/	mio	4a\	co-	4cc#X\	mio	4ee\	co-
.	.	4A/	core	4a\	-re	4cc#\	core	4ee\	-re
*	*	*	*	*custos:a	*	*	*	*	*
!	!	!	!	!LO:LB:g=original	!	!	!	!	!
4A\	I vuo-	2r	.	4a\	Vuo-	2r	.	4cc#X\	Vuo-
4G\	-to	.	.	4b\	-to	.	.	4dd\	-to
=61-	=61-	=61-	=61-	=61-	=61-	=61-	=61-	=61-	=61-
2c\	in	2r	.	2cc\	in-	2r	.	2ee\	in-
4c\	ſieme	4e\	Vuo-	4gny\	-ſie-	4ccny\	Vuo-	4gg\	-ſie-
4B\	di	4d\	-to	4g\	-me	4dd\	-to	2gg\	-me
=62-	=62-	=62-	=62-	=62-	=62-	=62-	=62-	=62-	=62-
4.c\	lagri-	2g\	in-	4.e/	di	4ee\	in-	.	.
.	.	.	.	.	.	2cc\	-ſie-	2ee\	di
8B\	-me	.	.	8d/	la-	.	.	.	.
4A\	e	4g\	-ſie-	4c/	.	.	.	.	.
4A\	d'a-	4f\	-me	4c/	-gri-	4a/	-me	4ccny\	la-
=63-	=63-	=63-	=63-	=63-	=63-	=63-	=63-	=63-	=63-
0G	-mo-	4.g\	di	4B/	-me	4.b/	di	4ee\	-gri-
.	.	.	.	4G/	d'a-	.	.	2dd\	-me
.	.	8f\	la-	.	.	8a/	la-	.	.
.	.	4e\	-gri-	2g\	-mo-	4b/	-gri-	.	.
.	.	4e\	-me	.	.	4cc\	-me	2cc\	d'a-
=64-	=64-	=64-	=64-	=64-	=64-	=64-	=64-	=64-	=64-
.	.	1d	e d'a-	1g	-re	1dd	e d'a-	.	.
.	.	.	.	.	.	.	.	8b/	.
.	.	.	.	.	.	.	.	8a/	.
.	.	.	.	.	.	.	.	2b\	-mo-
*	*	*custos:c	*	*	*	*	*	*	*
!	!	!LO:PB:g=original	!	!	!	!	!	!	!
=65-	=65-	=65-	=65-	=65-	=65-	=65-	=65-	=65-	=65-
1C	-re	2c/	-more	2r	.	2ee\	-more	2cc\	-re
.	.	4c/	Sec-	4g\	Sec-	4ee\	Sec-	4cc\	Sec-
.	.	4c/	-co e	4g\	-co e	4ee\	-co e	4cc\	-co e
*	*	*	*	*	*	*custos:ff	*	*custos:cc	*
!	!	!	!	!	!	!LO:LB:g=original	!	!LO:PB:g=original	!
=66-	=66-	=66-	=66-	=66-	=66-	=66-	=66-	=66-	=66-
1r	.	2f\	vuoto	2a\	vuoto	2ff\	vuoto	2cc\	vuoto
.	.	4d\	è'l	4a\	è'l	4ff\	è'l	4dd\	è'l
.	.	4e\	mio	4g#X\	mio	4ee\	mio	4b/	mio
*	*	*	*	*custos:a	*	*	*	*	*
!	!	!	!	!LO:PB:g=original	!	!	!	!	!
=67-	=67-	=67-	=67-	=67-	=67-	=67-	=67-	=67-	=67-
2r	.	4A/	co-	4a\	co-	4ee\	co-	4cc#X\	co-
.	.	4A/	-re	4a\	-re	4ee\	-re	4cc#\	-re
4A\	Vuoto	2r	.	4a\	Vuo-	4cc#X\	Vuoto	2r	.
4G\	in	.	.	4b\	-to	4dd\	in	.	.
=68-	=68-	=68-	=68-	=68-	=68-	=68-	=68-	=68-	=68-
2c\	ſie-	2r	.	2cc\	in-	2ee\	fie-	2r	.
*custos:c	*	*	*	*	*	*	*	*	*
!LO:PB:g=original	!	!	!	!	!	!	!	!	!
4c\	-me	4e\	Vuo-	4gny\	-ſie-	4gg\	-me	4ccny\	Vuo-
4B\	di	4d\	-to	4g\	-me	2gg\	di	4dd\	-to
=69-	=69-	=69-	=69-	=69-	=69-	=69-	=69-	=69-	=69-
4.c\	lagri-	2g\	in-	4.e/	di	.	.	4ee\	inſie-
.	.	.	.	.	.	2ee\	lagr-	2cc\	me
8B\	-me	.	.	8d/	la-	.	.	.	.
4A\	e	4g\	-ſie-	4c/	gri-	.	.	.	.
4A\	d'a-	4f\	-me	4c/	-me	4ccny\	-me	4a/	di
=70-	=70-	=70-	=70-	=70-	=70-	=70-	=70-	=70-	=70-
0G	-mo-	4.g\	di	4B/	e	4ee\	e	4.b/	la-
.	.	.	.	4G/	d'a-	2dd\	d'a-	.	.
.	.	8f\	la-	.	.	.	.	8a/	-gri-
.	.	4e\	-gri-	2g\	-mo-	.	.	4b/	-me e
.	.	4e\	- me e	.	.	2cc\	-mo-	4cc\	d'a-
=71-	=71-	=71-	=71-	=71-	=71-	=71-	=71-	=71-	=71-
.	.	1d	d'amo-	00g	-re.	.	.	1dd	-mo-
.	.	.	.	.	.	8b/	.	.	.
.	.	.	.	.	.	8a/	.	.	.
.	.	.	.	.	.	2b/	.	.	.
=72-	=72-	=72-	=72-	=72-	=72-	=72-	=72-	=72-	=72-
00C	-re.	00c	-re.	.	.	00cc	-re.	00ee	-re.
=73-	=73-	=73-	=73-	=73-	=73-	=73-	=73-	=73-	=73-
.	.	.	.	1ryy	.	.	.	.	.
==	==	==	==	==	==	==	==	==	==
*-	*-	*-	*-	*-	*-	*-	*-	*-	*-
!!!system-decoration: [(s1,s2,s3,s4,s5)]
!!!ENC: Marta Opryszak
!!!END: 2022-07-11
!!!ENC: Natalia Wrzos
!!!END: 2022-08-03
